images/social/linkedin.svg

<svg width="16" height="16" viewBox="0 0 16 16" fill="none" xmlns="http://www.w3.org/2000/svg">
<path fill-rule="evenodd" clip-rule="evenodd" d="M16 16H12.9231V10.3967C12.9231 8.85961 12.2715 8.00218 11.1031 8.00218C9.83154 8.00218 9.07692 8.89563 9.07692 10.3967V16H6V5.59243H9.07692V6.76288C9.07692 6.76288 10.0423 5 12.2177 5C14.3938 5 16 6.3818 16 9.24148C16 12.1004 16 16 16 16ZM1.50031 3C0.671513 3 0 2.32819 0 1.4997C0 0.671815 0.671513 0 1.50031 0C2.32849 0 3 0.671815 3 1.4997C3.00061 2.32819 2.32849 3 1.50031 3ZM0 16H3V6H0V16Z" fill="white"/>
</svg>

<svg width="16" height="16" fill="none" xmlns="http://www.w3.org/2000/svg"><path fill-rule="evenodd" clip-rule="evenodd" d="M16 16h-3.077v-5.603c0-1.537-.652-2.395-1.82-2.395-1.271 0-2.026.894-2.026 2.395V16H6V5.592h3.077v1.17S10.042 5 12.217 5C14.395 5 16 6.382 16 9.241V16zM1.5 3a1.5 1.5 0 110-3 1.5 1.5 0 010 3zM0 16h3V6H0v10z" fill="#fff"/></svg>
